X:142
T:Lying Tale - Nankivell
%%VWML:SBG-1-2-104-0
F:http://www.vwml.org/record/SBG/1/2/104
Z:Original Sibelius transcriptions by M. & S. Graebe
M:4/4
I:linebreak $
K:F
V:1 treble nm="P1"
V:1
 c | A B G A | F2 F G | A G A B | c3 d | A B G A | F2 F G | A G A B |$ c3 c | d e f g | f e d c | %11
 d e f e | d3 c | d e f d | d c c A |$ B G G F | c2 c3/2 A/ |[M:3/4] F F/F/ (3F/A/c/ | %18
 d/c/ c3/2 A/ | G/F/ F E | F3 | %21

